Papirus/64x64/apps/qbittorrent.svg

<svg xmlns="http://www.w3.org/2000/svg" width="64" height="64" version="1">
 <circle style="opacity:0.2" cx="32" cy="33" r="28"/>
 <circle style="fill:#2f67ba" cx="32" cy="32" r="28"/>
 <path style="opacity:0.2" d="M 19,23.00088 A 11,10.999698 0 0 0 8,34.000577 11,10.999698 0 0 0 19,45.000275 11,10.999698 0 0 0 24,43.786308 L 24,55 l 6,0 0,-20.999423 0,-10.999697 -6,0 0,1.203087 A 11,10.999698 0 0 0 19,23 Z m 0,5.999835 a 5,4.9998625 0 0 1 5,4.999862 5,4.9998625 0 0 1 -5,4.999863 5,4.9998625 0 0 1 -5,-4.999863 5,4.9998625 0 0 1 5,-4.999862 z"/>
 <path style="fill:#7fc1de" d="M 19,22 A 11,11 0 0 0 8,33 11,11 0 0 0 19,44 11,11 0 0 0 24,42.786 L 24,54 l 6,0 0,-21 0,-11 -6,0 0,1.204 A 11,11 0 0 0 19,22 Z m 0,6 a 5,5 0 0 1 5,5 5,5 0 0 1 -5,5 5,5 0 0 1 -5,-5 5,5 0 0 1 5,-5 z"/>
 <path style="opacity:0.2" d="M 45,44.99912 A 11,10.999698 0 0 0 56,33.999423 11,10.999698 0 0 0 45,22.999725 11,10.999698 0 0 0 40,24.213692 L 40,13 l -6,0 0,20.999423 0,10.999697 6,0 0,-1.203087 A 11,10.999698 0 0 0 45,45 Z m 0,-5.999835 a 5,4.9998625 0 0 1 -5,-4.999862 5,4.9998625 0 0 1 5,-4.999863 5,4.9998625 0 0 1 5,4.999863 5,4.9998625 0 0 1 -5,4.999862 z"/>
 <path style="fill:#ffffff" d="M 45,43.99912 A 11,10.999698 0 0 0 56,32.999423 11,10.999698 0 0 0 45,21.999725 11,10.999698 0 0 0 40,23.213692 L 40,12 l -6,0 0,20.999423 0,10.999697 6,0 0,-1.203087 A 11,10.999698 0 0 0 45,44 Z m 0,-5.999835 a 5,4.9998625 0 0 1 -5,-4.999862 5,4.9998625 0 0 1 5,-4.999863 5,4.9998625 0 0 1 5,4.999863 5,4.9998625 0 0 1 -5,4.999862 z"/>
 <path style="opacity:0.2;fill:#ffffff" d="M 32,4 A 28.0005,28.007677 0 0 0 4,32.007677 28.0005,28.007677 0 0 0 4.0175781,32.5 28.0005,28.007677 0 0 1 32,5.0002742 28.0005,28.007677 0 0 1 59.974609,32.5 28.0005,28.007677 0 0 0 60,32.007677 28.0005,28.007677 0 0 0 32,4 Z"/>
</svg>

<svg xmlns="http://www.w3.org/2000/svg" width="64" height="64" version="1">
 <circle style="opacity:0.2" cx="32" cy="33" r="28"/>
 <circle style="fill:#2f67ba" cx="32" cy="32" r="28"/>
 <path d="m 19,23 c -6.075132,0 -11,4.924868 -11,11 0,6.075132 4.924868,11 11,11 1.739203,-0.0037 3.452742,-0.420593 5,-1.214844 L 24,52 a 3,3 0 0 0 3,3 3,3 0 0 0 3,-3 l 0,-18 0,-11 -6,0 0,1.203125 C 22.451885,23.412341 20.73839,23.000607 19,23 Z m 0,6 c 2.761424,0 5,2.238576 5,5 0,2.761424 -2.238576,5 -5,5 -2.761424,0 -5,-2.238576 -5,-5 0,-2.761424 2.238576,-5 5,-5 z" style="opacity:0.2"/>
 <path style="fill:#64d4f9" d="M 19 22 C 12.924868 22 8 26.924868 8 33 C 8 39.075132 12.924868 44 19 44 C 20.739203 43.9963 22.452742 43.579407 24 42.785156 L 24 51 A 3 3 0 0 0 27 54 A 3 3 0 0 0 30 51 L 30 33 L 30 22 L 24 22 L 24 23.203125 C 22.451885 22.412341 20.73839 22.000607 19 22 z M 19 28 C 21.761424 28 24 30.238576 24 33 C 24 35.761424 21.761424 38 19 38 C 16.238576 38 14 35.761424 14 33 C 14 30.238576 16.238576 28 19 28 z"/>
 <path d="m 37,13 a 3,3 0 0 0 -3,3 l 0,18 0,11 6,0 0,-1.203125 c 1.548115,0.790762 3.26161,1.202518 5,1.203125 6.075132,0 10.999999,-4.925035 11,-11 0,-6.074965 -4.924868,-11 -11,-11 -1.739203,0.0037 -3.452742,0.418662 -5,1.212891 L 40,16 a 3,3 0 0 0 -3,-3 z m 8,16 c 2.761424,0 5,2.238652 5,5 0,2.761348 -2.238576,5 -5,5 -2.761424,0 -5,-2.238652 -5,-5 0,-2.761348 2.238576,-5 5,-5 z" style="opacity:0.2"/>
 <path style="fill:#ffffff" d="M 37 12 A 3 3 0 0 0 34 15 L 34 33 L 34 44 L 40 44 L 40 42.796875 C 41.548115 43.587637 43.26161 43.999393 45 44 C 51.075132 44 55.999999 39.074965 56 33 C 56 26.925035 51.075132 22 45 22 C 43.260797 22.0037 41.547258 22.418662 40 23.212891 L 40 15 A 3 3 0 0 0 37 12 z M 45 28 C 47.761424 28 50 30.238652 50 33 C 50 35.761348 47.761424 38 45 38 C 42.238576 38 40 35.761348 40 33 C 40 30.238652 42.238576 28 45 28 z"/>
 <path style="opacity:0.1;fill:#ffffff" d="M 32,4 A 28.0005,28.007677 0 0 0 4,32.007677 28.0005,28.007677 0 0 0 4.0175781,32.5 28.0005,28.007677 0 0 1 32,5.0002742 28.0005,28.007677 0 0 1 59.974609,32.5 28.0005,28.007677 0 0 0 60,32.007677 28.0005,28.007677 0 0 0 32,4 Z"/>
</svg>
